!!!COM: Music21
!!!OTL: Muiñeira de Moia
!!!OMV: pezas_muineiras_muineira-de-moia-1_muineira-de-moia-partitura.musicxml
**kern
*I"Bagpipes
*I'Bag
*clefG^2
*k[]
*M6/8
=1
!LO:TX:a:t=Allegro
*MM180
!LO:TX:a:t=[quarter]=180
2r
8ggL
8ggJ
=||
4gg
8ee
4aa
8ee
=
8ggL
8aa
[8ggJ
8ggL]
8gg
8ggJ
=
4gg
8ee
4aa
8ee
=
8ggL
8aa
[8ggJ
8ggL]
8gg
8ggJ
=
4gg
8ee
8ffL
8ee
8ddJ
=
2cc
8ggL
8ggJ
=||
4gg
8ee
4aa
8ee
!!linebreak:original
=
8ggL
8aa
[8ggJ
8ggL]
8gg
8ggJ
=
4gg
8ee
4aa
8ee
=
8ggL
8aa
[8ggJ
8ggL]
8gg
8ggJ
=
4dd
8ee
8ffL
8ee
8ddJ
!!linebreak:original
=||
2cc
8eeL
8eeJ
=
8eeL
8ff
8eeJ
8eeL
8ff
8eeJ
=
8eeL
8dd
[8ccJ
8ccL]
8cc
8ccJ
=
4cc
8dd
4ee
8ff
=
8eeL
8dd
[8eeJ
8eeL]
8ee
8eeJ
=
8eeL
8ff
8eeJ
8eeL
8ff
8eeJ
=
4aa
[8gg
4gg]
8aa
=
4dd
8ee
8ffL
8ee
8ddJ
!!linebreak:original
=
2cc
8ffL
8eeJ
=
8eeL
8ff
8eeJ
8eeL
8ff
8eeJ
=
8eeL
8dd
[8ccJ
8ccL]
8cc
8bJ
=
4cc
8dd
4ee
8ff
=
8eeL
8dd
[8eeJ
8eeL]
8ff
8eeJ
=
8eeL
8ff
8eeJ
8eeL
8ff
8eeJ
=
4aa
[8gg
4gg]
8aa
=
8ddL
8ee
8ffJ
8ffL
8ee
8ddJ
!!linebreak:original
=||
2cc
8ggL
8ggJ
=||
8ccc
8r
2r
==
*-
